other/aliexpress.svg

<?xml version="1.0" encoding="UTF-8" standalone="no"?>
<svg
   xmlns:dc="http://purl.org/dc/elements/1.1/"
   xmlns:cc="http://creativecommons.org/ns#"
   xmlns:rdf="http://www.w3.org/1999/02/22-rdf-syntax-ns#"
   xmlns:svg="http://www.w3.org/2000/svg"
   xmlns="http://www.w3.org/2000/svg"
   xmlns:sodipodi="http://sodipodi.sourceforge.net/DTD/sodipodi-0.dtd"
   xmlns:inkscape="http://www.inkscape.org/namespaces/inkscape"
   enable-background="new 0 0 140 140"
   id="Layer_17"
   version="1.1"
   viewBox="0 0 40.099998 40.09782"
   xml:space="preserve"
   sodipodi:docname="ali.svg"
   width="48"
   height="48"
   inkscape:version="0.92.2 2405546, 2018-03-11"><metadata
     id="metadata7720"><rdf:RDF><cc:Work
         rdf:about=""><dc:format>image/svg+xml</dc:format><dc:type
           rdf:resource="http://purl.org/dc/dcmitype/StillImage" /><dc:title></dc:title></cc:Work></rdf:RDF></metadata><defs
     id="defs7718" /><sodipodi:namedview
     pagecolor="#ffffff"
     bordercolor="#ffffff"
     borderopacity="1"
     objecttolerance="10"
     gridtolerance="10"
     guidetolerance="10"
     inkscape:pageopacity="0"
     inkscape:pageshadow="2"
     inkscape:window-width="2520"
     inkscape:window-height="1397"
     id="namedview7716"
     showgrid="false"
     showguides="true"
     inkscape:guide-bbox="true"
     inkscape:zoom="16"
     inkscape:cx="-4.1276535"
     inkscape:cy="14.429541"
     inkscape:window-x="1460"
     inkscape:window-y="623"
     inkscape:window-maximized="0"
     inkscape:current-layer="layer15"><sodipodi:guide
       position="4.077344,37.055628"
       orientation="0,1"
       id="guide8446"
       inkscape:locked="false" /><sodipodi:guide
       position="21.445723,0.05"
       orientation="0,1"
       id="guide8448"
       inkscape:locked="false" /><sodipodi:guide
       position="0.05,3.364222"
       orientation="1,0"
       id="guide8450"
       inkscape:locked="false" /><sodipodi:guide
       position="40.05,3.528284"
       orientation="1,0"
       id="guide8452"
       inkscape:locked="false" /><sodipodi:guide
       position="1.092969,35.481409"
       orientation="-0.70710678,0.70710678"
       id="guide8456"
       inkscape:locked="false" /><sodipodi:guide
       position="40.05,34.390915"
       orientation="0.70710678,0.70710678"
       id="guide8458"
       inkscape:locked="false" /><sodipodi:guide
       position="2.889844,0.05"
       orientation="0.70710678,0.70710678"
       id="guide8460"
       inkscape:locked="false" /><sodipodi:guide
       position="40.05,3.012659"
       orientation="-0.70710678,0.70710678"
       id="guide8462"
       inkscape:locked="false" /><sodipodi:guide
       position="3.049909,38.048299"
       orientation="0,1"
       id="guide8468"
       inkscape:locked="false" /><sodipodi:guide
       position="7.8585939,40.047815"
       orientation="0,1"
       id="guide8470"
       inkscape:locked="false" /><sodipodi:guide
       position="3.049909,38.048299"
       orientation="-0.70710678,0.70710678"
       id="guide8472"
       inkscape:locked="false" /><sodipodi:guide
       position="37.049909,38.048299"
       orientation="0.70710678,0.70710678"
       id="guide8474"
       inkscape:locked="false" /><sodipodi:guide
       position="20.311719,27.418909"
       orientation="0,1"
       id="guide8478"
       inkscape:locked="false" /><sodipodi:guide
       position="19.995313,14.743128"
       orientation="0,1"
       id="guide8480"
       inkscape:locked="false" /><sodipodi:guide
       position="19.999219,12.325159"
       orientation="0,1"
       id="guide8482"
       inkscape:locked="false" /><sodipodi:guide
       position="29.811719,25.450159"
       orientation="1,0"
       id="guide8484"
       inkscape:locked="false" /><sodipodi:guide
       position="34.046094,25.231409"
       orientation="1,0"
       id="guide8486"
       inkscape:locked="false" /><sodipodi:guide
       position="6.0460939,23.778284"
       orientation="1,0"
       id="guide8488"
       inkscape:locked="false" /><sodipodi:guide
       position="10.288282,25.704065"
       orientation="1,0"
       id="guide8490"
       inkscape:locked="false" /><sodipodi:guide
       position="8.8273439,23.715784"
       orientation="0,1"
       id="guide8492"
       inkscape:locked="false" /><sodipodi:guide
       position="8.1085939,23.450159"
       orientation="0,1"
       id="guide8494"
       inkscape:locked="false" /><sodipodi:guide
       position="10.288282,27.418909"
       orientation="-0.70710678,0.70710678"
       id="guide8500"
       inkscape:locked="false" /></sodipodi:namedview><g
     inkscape:groupmode="layer"
     id="layer15"
     inkscape:label="Bag"
     transform="translate(-28.625781,-18.102339)"><path
       style="fill:#ffffff;stroke:#ffffff;stroke-width:0.1;stroke-linecap:butt;stroke-linejoin:miter;stroke-miterlimit:4;stroke-dasharray:none;stroke-opacity:1;fill-opacity:1"
       d="M 3.1171875 3.0429688 C 3.1171875 3.0429688 0.05078125 3.0312485 0.05078125 6.1015625 L 0.05078125 37.207031 C 0.05078125 37.207031 0.21187013 40.046875 3.1894531 40.046875 L 37.087891 40.046875 C 37.087891 40.046875 40.050781 40.023437 40.050781 36.851562 L 40.050781 5.9453125 C 40.050781 5.9453125 40.039061 3.0429688 36.671875 3.0429688 L 3.1171875 3.0429688 z M 8.171875 12.679688 C 8.171875 12.679688 9.0429686 12.664057 9.6660156 13.302734 C 10.289063 13.941406 10.289062 14.65625 10.289062 14.65625 C 10.289062 14.65625 10.343753 15.296875 10.039062 15.808594 C 9.7343745 16.320313 9.5668031 16.352788 9.5644531 16.392578 C 9.5621531 16.432368 9.6171875 16.648438 9.6171875 16.648438 C 9.6171875 16.648438 9.8281255 17.835938 10.289062 18.808594 C 10.75 19.78125 10.609375 19.566406 10.921875 20.066406 C 11.234375 20.566406 11.234375 20.617188 11.59375 21.070312 C 11.953125 21.523438 12.335938 21.988282 12.644531 22.277344 C 12.953125 22.566407 13.15625 22.792968 13.527344 23.066406 C 13.898438 23.339843 14.078125 23.484375 14.320312 23.636719 C 14.5625 23.789063 15.3125 24.230469 15.597656 24.355469 C 15.882813 24.480469 16.40625 24.699219 16.695312 24.796875 C 16.984375 24.894535 17.296875 24.992188 17.589844 25.058594 C 17.882813 25.125004 18.773438 25.28125 19.011719 25.296875 C 19.25 25.312505 19.886719 25.355469 19.996094 25.355469 C 20.105469 25.355469 20.738281 25.343753 21.179688 25.289062 C 21.621094 25.234372 22.257812 25.125 22.585938 25.039062 C 22.914062 24.953122 23.835938 24.664063 24.230469 24.480469 C 24.624998 24.296883 24.082031 24.585938 24.625 24.296875 C 25.167969 24.007813 25.765625 23.660156 26.058594 23.445312 C 26.351563 23.230469 25.871094 23.609375 26.351562 23.230469 C 26.832031 22.851563 27.488281 22.261719 27.761719 21.960938 C 28.035156 21.660156 28.335938 21.316407 28.507812 21.074219 C 28.679688 20.832032 28.933594 20.488281 29.101562 20.195312 C 29.269531 19.902344 29.636719 19.238282 29.8125 18.8125 C 29.988281 18.386719 30.283783 17.551508 30.410156 16.972656 L 30.535156 16.392578 C 30.535156 16.392578 30.222656 16.085937 30.105469 15.878906 C 29.988281 15.671874 29.8125 15.238282 29.8125 14.921875 C 29.8125 14.605469 29.84375 14.128906 30.058594 13.800781 C 30.273438 13.472656 30.273438 13.46875 30.273438 13.46875 C 30.273438 13.46875 30.902344 12.683594 31.890625 12.679688 C 32.878906 12.675787 33.417969 13.296875 33.417969 13.296875 C 33.417969 13.296875 34.046875 13.957031 34.046875 14.664062 C 34.046875 15.371094 33.953125 15.515625 33.847656 15.714844 C 33.742188 15.914063 33.488281 16.253906 33.332031 16.382812 C 33.175781 16.511719 32.945312 16.65625 32.945312 16.65625 C 32.945312 16.65625 32.753906 17.667969 32.707031 17.808594 C 32.660161 17.949219 32.394531 18.851563 32.253906 19.21875 C 32.113281 19.585938 31.6875 20.648438 31.171875 21.449219 C 30.65625 22.25 30.183594 22.898437 29.8125 23.300781 C 29.441406 23.703124 28.566406 24.695313 27.550781 25.355469 C 26.535156 26.015625 26.0625 26.367188 25.121094 26.730469 C 24.179688 27.09375 23.878906 27.210937 23.402344 27.332031 C 22.925781 27.453124 21.246094 27.839844 20 27.773438 C 18.753906 27.707028 18.140625 27.703127 17.140625 27.441406 C 16.140625 27.179687 15.3125 26.929688 14.617188 26.574219 C 13.921875 26.21875 13.128906 25.8125 12.546875 25.355469 C 11.964844 24.898438 10.945312 24.109375 10.289062 23.304688 C 9.6328125 22.5 8.96875 21.609374 8.609375 20.894531 C 8.25 20.179687 7.8554692 19.316407 7.7382812 18.953125 C 7.6210942 18.589844 7.4257812 17.976563 7.3320312 17.546875 C 7.2382812 17.117188 7.1542969 16.65625 7.1542969 16.65625 C 7.1542969 16.65625 6.8535148 16.466797 6.7617188 16.382812 C 6.6699188 16.298833 6.7304681 16.335942 6.6738281 16.294922 C 6.6171881 16.253902 6.2773442 15.796874 6.2070312 15.597656 C 6.1367213 15.398437 6.046875 15.101562 6.046875 14.847656 C 6.046875 14.593749 6.1093745 14.105468 6.3046875 13.800781 C 6.4999995 13.496093 6.7734382 13.164063 7.0195312 13.027344 C 7.2656252 12.890625 7.632813 12.679688 8.171875 12.679688 z "
       transform="translate(28.625781,18.102339)"
       id="path8466" /><path
       style="fill:#ffffff;stroke:#ffffff;stroke-width:0.1;stroke-linecap:butt;stroke-linejoin:miter;stroke-miterlimit:4;stroke-dasharray:none;stroke-opacity:1;fill-opacity:1"
       d="m 31.67569,20.15186 h 34 c 0,0 -0.0847,-1.999516 -1.999516,-1.999516 -1.914816,0 -30.000968,0 -30.000968,0 0,0 -1.900563,-0.01716 -1.999516,1.999516 z"
       id="path8476"
       inkscape:connector-curvature="0" /></g></svg>

<?xml version="1.0" encoding="UTF-8" standalone="no"?>
<svg
   xmlns:dc="http://purl.org/dc/elements/1.1/"
   xmlns:cc="http://creativecommons.org/ns#"
   xmlns:rdf="http://www.w3.org/1999/02/22-rdf-syntax-ns#"
   xmlns:svg="http://www.w3.org/2000/svg"
   xmlns="http://www.w3.org/2000/svg"
   xmlns:sodipodi="http://sodipodi.sourceforge.net/DTD/sodipodi-0.dtd"
   xmlns:inkscape="http://www.inkscape.org/namespaces/inkscape"
   version="1.1"
   height="48"
   width="48"
   xml:space="preserve"
   >
     <g><g
       transform="translate(-28.540539,-17.42475)"><path
         d="m 3.1171875,3.0429688 c 0,0 -3.06640625,-0.01172 -3.06640625,3.0585937 V 37.207031 c 0,0 0.16108888,2.839844 3.13867185,2.839844 H 37.087891 c 0,0 2.96289,-0.02344 2.96289,-3.195313 V 5.9453125 c 0,0 -0.01172,-2.9023437 -3.378906,-2.9023437 z M 8.171875,12.679688 c 0,0 0.8710936,-0.01563 1.4941406,0.623046 0.6230474,0.638672 0.6230464,1.353516 0.6230464,1.353516 0,0 0.05469,0.640625 -0.25,1.152344 -0.3046875,0.511719 -0.4722589,0.544194 -0.4746089,0.583984 -0.0023,0.03979 0.052734,0.25586 0.052734,0.25586 0,0 0.210938,1.1875 0.6718749,2.160156 0.460938,0.972656 0.320313,0.757812 0.632813,1.257812 0.3125,0.5 0.3125,0.550782 0.671875,1.003906 0.359375,0.453126 0.742188,0.91797 1.050781,1.207032 0.308594,0.289063 0.511719,0.515624 0.882813,0.789062 0.371094,0.273437 0.550781,0.417969 0.792968,0.570313 0.242188,0.152344 0.992188,0.59375 1.277344,0.71875 0.285157,0.125 0.808594,0.34375 1.097656,0.441406 0.289063,0.09766 0.601563,0.195313 0.894532,0.261719 0.292969,0.06641 1.183594,0.222656 1.421875,0.238281 0.238281,0.01563 0.875,0.05859 0.984375,0.05859 0.109375,0 0.742187,-0.01172 1.183594,-0.06641 0.441406,-0.05469 1.078124,-0.164062 1.40625,-0.25 0.328124,-0.08594 1.25,-0.374999 1.644531,-0.558593 0.394529,-0.183586 -0.148438,0.105469 0.394531,-0.183594 0.542969,-0.289062 1.140625,-0.636719 1.433594,-0.851563 0.292969,-0.214843 -0.1875,0.164063 0.292968,-0.214843 0.480469,-0.378906 1.136719,-0.96875 1.410157,-1.269531 0.273437,-0.300782 0.574219,-0.644531 0.746093,-0.886719 0.171876,-0.242187 0.425782,-0.585938 0.59375,-0.878907 0.167969,-0.292968 0.535157,-0.95703 0.710938,-1.382812 0.175781,-0.425781 0.471283,-1.260992 0.597656,-1.839844 l 0.125,-0.580078 c 0,0 -0.3125,-0.306641 -0.429687,-0.513672 -0.117188,-0.207032 -0.292969,-0.640624 -0.292969,-0.957031 0,-0.316406 0.03125,-0.792969 0.246094,-1.121094 0.214844,-0.328125 0.214844,-0.332031 0.214844,-0.332031 0,0 0.628906,-0.785156 1.617187,-0.789062 0.988281,-0.0039 1.527344,0.617187 1.527344,0.617187 0,0 0.628906,0.660156 0.628906,1.367187 0,0.707032 -0.09375,0.851563 -0.199219,1.050782 -0.105468,0.199219 -0.359375,0.539062 -0.515625,0.667968 -0.15625,0.128907 -0.386719,0.273438 -0.386719,0.273438 0,0 -0.191406,1.011719 -0.238281,1.152344 -0.04687,0.140625 -0.3125,1.042969 -0.453125,1.410156 -0.140625,0.367188 -0.566406,1.429688 -1.082031,2.230469 -0.515625,0.800781 -0.988281,1.449218 -1.359375,1.851562 -0.371094,0.402343 -1.246094,1.394532 -2.261719,2.054688 -1.015625,0.660156 -1.488281,1.011719 -2.429687,1.375 -0.941406,0.363281 -1.242188,0.480468 -1.71875,0.601562 -0.476563,0.121093 -2.15625,0.507813 -3.402344,0.441407 -1.246094,-0.06641 -1.859375,-0.07031 -2.859375,-0.332032 -1,-0.261719 -1.828125,-0.511718 -2.523437,-0.867187 C 13.921875,26.21875 13.128906,25.8125 12.546875,25.355469 11.964844,24.898438 10.945312,24.109375 10.289062,23.304688 9.6328125,22.5 8.96875,21.609374 8.609375,20.894531 8.25,20.179687 7.8554692,19.316407 7.7382812,18.953125 c -0.117187,-0.363281 -0.3125,-0.976562 -0.40625,-1.40625 -0.09375,-0.429687 -0.1777343,-0.890625 -0.1777343,-0.890625 0,0 -0.3007821,-0.189453 -0.3925781,-0.273438 -0.0918,-0.08398 -0.031251,-0.04687 -0.087891,-0.08789 -0.05664,-0.04102 -0.3964839,-0.498048 -0.4667969,-0.697266 -0.07031,-0.199219 -0.1601562,-0.496094 -0.1601562,-0.75 0,-0.253907 0.0625,-0.742188 0.2578125,-1.046875 0.195312,-0.304688 0.4687507,-0.636718 0.7148437,-0.773437 0.246094,-0.136719 0.6132818,-0.347656 1.1523441,-0.347656 z"
         style="fill:#ffffff;fill-opacity:1;stroke:#ffffff;stroke-width:0.1;stroke-linecap:butt;stroke-linejoin:miter;stroke-miterlimit:4;stroke-dasharray:none;stroke-opacity:1"
         transform="translate(28.625781,18.102339)"
         /><path
         d="m 31.67569,20.15186 h 34 c 0,0 -0.0847,-1.999516 -1.999516,-1.999516 -1.914816,0 -30.000968,0 -30.000968,0 0,0 -1.900563,-0.01716 -1.999516,1.999516 z"
         style="fill:#ffffff;fill-opacity:1;stroke:#ffffff;stroke-width:0.1;stroke-linecap:butt;stroke-linejoin:miter;stroke-miterlimit:4;stroke-dasharray:none;stroke-opacity:1"
         /></g></g></svg>
